X: 20151
T: JACK AT GREENWICH
T: From the Entertainment called "The Cake-House."
C: Dibdin.
Q: "Briskly."
%R: reel
B: W. Hamilton "Universal Tune-Book" Vol. 2 Glasgow 1846 p.15 #1
S: http://s3-eu-west-1.amazonaws.com/itma.dl.printmaterial/book_pdfs/hamiltonvol2web.pdf
Z: 2016 John Chambers <jc:trillian.mit.edu>
M: C
L: 1/8
K: A
% - - - - - - - - - - - - - - - - - - - - - - - - -
(cd) |\
ecBA dBAG | A2c2 F2zA | E2A2 A2c2 | c2B2 z2(cd) |\
ecBA dBAG | A2c2 F2A2 | E2f2 e2d2 | c2A2 z2(cB) |\
B2G2 e2B2 | c2A2 e2c>B |
B2cB AGFE | ^D2[F2B,2] z2B2 |\
B3B G2B2 | e2e2 c2c>B | B3c B2Bc/A/ | G2E2 z2e2 |\
e2(cA) {e}d2BG | A2c2 F3F | E2A2 A2c2 | c2B2 z2e2 |\
e2cA {e}d2BG |
A2c2 F3A | E2f2 e2d2 | c2A2 z2e2 |\
f2d2 z2(af) | e2c2 z2e2 | f2d2 z2(af) | e2c2 z2a2 |\
afed ecBA | G2A2 D2F>E | E2f2 e2d2 | c2A2 z2 |]
% - - - - - - - - - - - - - - - - - - - - - - - - -

%%sep 1 1 500
%%sep 1 1 500

